carriers/zasilkovna.svg

<svg width="128" height="64" viewBox="0 0 128 64" fill="none" xmlns="http://www.w3.org/2000/svg">
<rect width="128" height="64" rx="6" fill="#BA1B02"/>
<path fill-rule="evenodd" clip-rule="evenodd" d="M18.8956 29.3562L18.2754 29.6544L17.6553 29.3562L8.9872 25.0529L13.0964 23.4717L21.9917 27.8176L18.8956 29.3562ZM27.5779 25.0529L24.4723 26.5678L15.4776 22.5439L18.2754 21.455L27.5779 25.0529ZM7.42969 35.7803L7.709 36.3058L17.7074 45.3005L18.0198 43.2317L9.13869 35.1838L7.89363 24.7689L6 24.0446L7.42969 35.7803ZM28.6573 24.7641L27.4264 35.2028L18.5311 43.2507L18.8577 45.3289L28.8419 36.2869L29.1259 35.7614L30.5462 24.0398L28.6573 24.7641ZM17.9535 18.6714L6.55862 23.093L8.14453 24.3807L18.2754 20.4419L28.3922 24.3807L29.9875 23.093L18.6258 18.6714H17.9535ZM110.348 28.3526C110.975 28.6295 111.515 29.0712 111.911 29.6308C112.318 30.2762 112.527 31.0266 112.512 31.7895V39.2031H110.178V31.8132C110.16 31.3906 109.978 30.9917 109.671 30.7007C109.361 30.4208 108.982 30.228 108.573 30.142C108.151 30.0381 107.712 30.014 107.281 30.071C106.887 30.1133 106.506 30.2375 106.163 30.4356V39.2031H103.796V28.6366C104.005 28.6088 104.211 28.5645 104.412 28.5041C104.663 28.4283 105.046 28.3005 105.562 28.1253C106.177 27.9418 106.814 27.8446 107.456 27.8365C107.506 27.8271 107.557 27.8271 107.607 27.8365C107.806 27.8365 108 27.8365 108.199 27.8365C108.929 27.8784 109.646 28.0499 110.315 28.3431L110.348 28.3526ZM103.427 28.6792L99.7299 39.2267H97.2303L93.533 28.6792C94.3337 28.6846 95.1186 28.4559 95.7911 28.0212L98.0256 34.5447L98.3949 36.7697H98.5653L98.9298 34.5447L101.169 28.0212C101.842 28.4559 102.626 28.6846 103.427 28.6792V28.6792ZM65.0197 33.0488C65.5504 33.2557 66.0173 33.5985 66.3736 34.0429C66.7631 34.5955 66.9594 35.2611 66.9322 35.9365C66.9515 36.7083 66.7096 37.4639 66.2458 38.0811C65.7967 38.6263 65.1976 39.0279 64.5226 39.2362C63.8067 39.4604 63.0501 39.5235 62.307 39.4208C61.5379 39.3199 60.8016 39.0464 60.153 38.6208C59.4837 38.1701 58.9526 37.5424 58.6192 36.8076L60.3803 35.6572C60.6485 36.1313 61.035 36.5277 61.5023 36.8076C61.9138 37.0763 62.3854 37.2389 62.8751 37.281C63.2915 37.3283 63.712 37.2386 64.0729 37.0254C64.2367 36.9158 64.3706 36.767 64.4623 36.5926C64.5541 36.4182 64.6008 36.2236 64.5983 36.0265C64.6037 35.9057 64.5793 35.7854 64.5273 35.6762C64.4795 35.566 64.4085 35.4675 64.319 35.3874C64.1247 35.2159 63.8976 35.0854 63.6515 35.0039C63.3769 34.9235 63.1118 34.8524 62.8467 34.7956C62.413 34.7162 61.9846 34.6103 61.5638 34.4784C61.1137 34.3421 60.6838 34.1463 60.2856 33.8962C59.8758 33.6505 59.5315 33.3094 59.282 32.902C59.0454 32.4928 58.9167 32.0301 58.908 31.5575V31.5197C58.9032 31.4582 58.9032 31.3965 58.908 31.335C58.8843 30.6159 59.1157 29.9116 59.5613 29.3467C59.9688 28.8275 60.5131 28.4324 61.133 28.2058C61.7503 27.9816 62.4031 27.8709 63.0598 27.8792C63.6964 27.8846 64.3256 28.0166 64.9108 28.2673C65.5755 28.5576 66.1806 28.9685 66.6955 29.4793L65.2753 31.0368C64.9543 30.7229 64.5679 30.4837 64.1439 30.3361C63.729 30.1722 63.288 30.084 62.842 30.0758C62.4658 30.067 62.0934 30.1516 61.7579 30.3219C61.6205 30.3925 61.5032 30.4967 61.417 30.6249C61.3269 30.7494 61.2684 30.894 61.2466 31.0462C61.2241 31.1991 61.2371 31.3551 61.2847 31.5021C61.3324 31.6491 61.4133 31.7831 61.5212 31.8936C61.7464 32.1104 62.0186 32.2724 62.3165 32.3671C62.6233 32.4755 62.9407 32.5517 63.2633 32.5943C63.8638 32.6594 64.4539 32.7994 65.0197 33.0109V33.0488ZM70.0236 24.3191C70.1623 24.4645 70.2706 24.6361 70.3421 24.8239C70.4136 25.0117 70.447 25.2119 70.4402 25.4127C70.4541 25.715 70.3736 26.0141 70.2099 26.2686C70.0462 26.523 69.8073 26.7203 69.5265 26.8329C69.1529 26.9748 68.7403 26.9748 68.3667 26.8329C68.1875 26.7588 68.0261 26.6475 67.8932 26.5063C67.7571 26.3701 67.6479 26.2095 67.5713 26.0329C67.4976 25.8493 67.4606 25.6531 67.4624 25.4553C67.4589 25.2532 67.4943 25.0523 67.5666 24.8636C67.6402 24.6758 67.7514 24.505 67.8932 24.3617C68.0294 24.2256 68.19 24.1164 68.3667 24.0398C68.5475 23.9683 68.7402 23.9313 68.9347 23.9309C69.1343 23.9267 69.3325 23.9638 69.517 24.0398C69.7009 24.0912 69.873 24.178 70.0236 24.2955V24.3191ZM76.0595 37.1011V23.8883H78.4266V32.5185L79.5343 31.283L82.4174 28.0259H85.3762L80.7273 33.186L85.3525 39.222H82.5783L79.0704 34.6394L78.4313 35.3069V39.222L76.1589 39.3072H75.7613C74.2464 39.1983 73.1812 38.8338 72.5563 38.2894C72.18 37.9275 71.8852 37.4894 71.6917 37.0045C71.4982 36.5195 71.4105 35.9989 71.4343 35.4773V23.8883H73.8014V35.4395C73.7924 35.6532 73.8296 35.8663 73.9102 36.0644C73.9869 36.2657 74.1083 36.4471 74.2653 36.5946C74.8061 36.92 75.4286 37.0843 76.0595 37.068V37.1011ZM70.1609 39.2031H67.7938V27.9738H70.1609V39.2031ZM54.5905 27.3016H52.2661L53.7904 24.7736H56.7066L54.5905 27.3016ZM121.341 29.4651C120.911 28.9156 120.342 28.4908 119.693 28.2342C119.026 27.9709 118.314 27.839 117.596 27.846C116.879 27.8312 116.166 27.96 115.499 28.2247C114.754 28.5415 114.092 29.0278 113.568 29.645L114.94 30.909C115.288 30.545 115.716 30.2677 116.19 30.0994C116.665 29.9445 117.166 29.8897 117.663 29.9385C118.124 29.9701 118.566 30.1345 118.936 30.4119C119.309 30.7107 119.561 31.1345 119.646 31.6049V32.2818C118.996 32.0089 118.305 31.8488 117.601 31.8084C116.897 31.7746 116.193 31.8841 115.532 32.1304C114.843 32.3603 114.247 32.8077 113.834 33.4053C113.421 34.0028 113.213 34.7183 113.241 35.4442C113.218 36.2489 113.429 37.0429 113.847 37.7308C114.21 38.2996 114.739 38.7439 115.362 39.0042C116.028 39.2928 116.743 39.4534 117.468 39.4776C118.25 39.5125 119.032 39.4617 119.802 39.3261C120.551 39.1936 121.286 38.994 121.999 38.7296V31.5481C122.017 30.8021 121.791 30.0705 121.355 29.4651H121.341ZM119.641 37.2005C119.2 37.3291 118.746 37.4132 118.287 37.4514C117.832 37.4895 117.374 37.4559 116.929 37.352C116.498 37.28 116.113 37.0406 115.857 36.6859C115.602 36.3312 115.497 35.89 115.565 35.4584C115.57 35.2578 115.618 35.0606 115.707 34.8808C115.797 34.6981 115.924 34.5366 116.081 34.4074C116.405 34.1612 116.793 34.0133 117.199 33.9814C117.635 33.9285 118.077 33.9396 118.51 34.0145C118.902 34.0622 119.283 34.1708 119.641 34.3364V37.2005ZM93.4052 30.5066C93.3035 30.1659 93.1433 29.8455 92.9318 29.5597C92.516 28.989 91.9554 28.5396 91.308 28.2579C90.6517 27.9791 89.9474 27.8312 89.2344 27.8223C89.065 27.8254 88.8959 27.838 88.7279 27.8602C88.1691 27.9066 87.6211 28.0408 87.1041 28.2579C86.7173 28.4279 86.3608 28.6598 86.0484 28.9443C85.6481 29.2794 85.3305 29.7024 85.1203 30.1803C84.9102 30.6581 84.813 31.178 84.8365 31.6996V35.6146C84.8192 36.3868 85.048 37.1445 85.4898 37.7781C85.701 38.0609 85.9476 38.3155 86.2236 38.5355C86.5018 38.7491 86.8056 38.9272 87.1278 39.0658C87.6456 39.283 88.1928 39.4218 88.7516 39.4776H89.2581C89.971 39.4728 90.6758 39.3263 91.3316 39.0468C91.98 38.7733 92.5414 38.3281 92.9554 37.7592C93.3986 37.126 93.629 36.3684 93.6135 35.5957V31.6853C93.5964 31.2849 93.5264 30.8886 93.4052 30.5066V30.5066ZM91.2086 35.6004C91.2132 35.9305 91.1027 36.2519 90.8961 36.5094C90.6916 36.7558 90.4343 36.9532 90.1434 37.0869C89.8425 37.2079 89.5209 37.269 89.1966 37.2668C88.8633 37.2662 88.5329 37.2053 88.2213 37.0869C87.9233 36.9537 87.6582 36.7565 87.445 36.5094C87.2474 36.2476 87.1409 35.9284 87.142 35.6004V31.6853C87.138 31.3671 87.2452 31.0573 87.445 30.8095C87.6565 30.5774 87.9237 30.4031 88.2213 30.303C88.3741 30.2425 88.5328 30.1981 88.6948 30.1704C89.1717 30.0931 89.6605 30.1387 90.115 30.303C90.4056 30.4036 90.665 30.5782 90.8677 30.8095C91.0749 31.0537 91.186 31.3651 91.1801 31.6853L91.2086 35.6004ZM57.3789 29.4651C56.9489 28.9156 56.3802 28.4908 55.7314 28.2342C55.0639 27.9709 54.3518 27.839 53.6342 27.846C52.9662 27.8308 52.3013 27.9416 51.6743 28.1727C51.6268 28.1851 51.5808 28.2025 51.537 28.2247C50.7814 28.5404 50.109 29.0264 49.5724 29.645L50.95 30.909C51.1623 30.7004 51.4011 30.5206 51.6601 30.374C51.832 30.2742 52.0127 30.1902 52.1998 30.1231C52.6741 29.9682 53.1755 29.9134 53.6721 29.9621C54.1334 29.9937 54.5757 30.1582 54.9456 30.4356C55.3198 30.7326 55.5711 31.1575 55.6509 31.6285V32.3055C55.0033 32.0308 54.3129 31.8707 53.6106 31.8321C52.9489 31.7995 52.2871 31.8927 51.6601 32.1067L51.5418 32.154C50.8527 32.384 50.2568 32.8314 49.8436 33.4289C49.4305 34.0265 49.2223 34.7419 49.2505 35.4679C49.2527 35.9191 49.3148 36.368 49.4351 36.8029H41.3872L49.8659 25.5311L49.1037 23.9073H38.4947V26.3643H46.4905L38.0449 37.5603L38.7077 39.2031H49.5629V37.1579C49.6772 37.4364 49.8217 37.7015 49.9937 37.9485C50.1162 38.1056 50.249 38.2543 50.3914 38.3935C50.6796 38.6568 51.0111 38.8682 51.3713 39.0184C51.4663 39.0647 51.5643 39.1043 51.6648 39.1368C52.2473 39.3453 52.8595 39.4588 53.478 39.4729C54.2607 39.5077 55.0449 39.4569 55.8166 39.3214C56.5638 39.1895 57.2975 38.9898 58.0085 38.7249V31.5481C58.027 30.8021 57.8009 30.0705 57.3647 29.4651H57.3789ZM55.6557 37.2005C55.2122 37.3287 54.757 37.4128 54.297 37.4514C53.8417 37.4895 53.3832 37.4559 52.9383 37.352C52.5419 37.2663 52.1834 37.0556 51.9158 36.7508C51.8033 36.6093 51.7168 36.449 51.6601 36.2774C51.5846 36.0146 51.5558 35.7406 51.5749 35.4679C51.5845 35.3243 51.6132 35.1826 51.6601 35.0465C51.7309 34.7952 51.8823 34.574 52.0909 34.4169C52.4148 34.1707 52.8026 34.0228 53.2082 33.9908C53.6445 33.9379 54.0863 33.949 54.5195 34.024C54.9111 34.0717 55.2929 34.1803 55.6509 34.3459V37.1863L55.6557 37.2005Z" fill="white"/>
<path fill-rule="evenodd" clip-rule="evenodd" d="M17.7688 30.5729L18.2138 41.9346L10.1043 34.6205L8.96338 25.1523L17.7688 30.5729Z" fill="#DEDEDE"/>
<path fill-rule="evenodd" clip-rule="evenodd" d="M24.714 26.9322L27.5875 25.1711L26.4561 34.6393L18.3372 41.9676L18.8106 30.6059L22.3469 28.3856L22.1149 33.967L24.3305 32.4001L24.714 26.9322Z" fill="#B4B4B4"/>
</svg>

<svg xmlns="http://www.w3.org/2000/svg" width="128" height="64" fill="none"><rect width="128" height="64" fill="#BA1B02" rx="6"/><path fill="#fff" fill-rule="evenodd" d="m18.896 29.356-.62.298-.62-.298-8.669-4.303 4.11-1.581 8.895 4.346-3.096 1.538Zm8.682-4.303-3.106 1.515-8.994-4.024 2.797-1.089 9.303 3.598ZM7.43 35.78l.279.526 9.998 8.995.313-2.07-8.881-8.047-1.245-10.415L6 24.045 7.43 35.78Zm21.227-11.016-1.23 10.439-8.896 8.048.327 2.078 9.984-9.042.284-.526 1.42-11.721-1.889.724Zm-10.704-6.093L6.56 23.093l1.586 1.288 10.13-3.94 10.117 3.94 1.596-1.288-11.362-4.422h-.673Zm92.395 9.682a3.79 3.79 0 0 1 1.563 1.278c.407.645.616 1.396.601 2.159v7.413h-2.334v-7.39a1.629 1.629 0 0 0-.507-1.112 2.365 2.365 0 0 0-1.098-.559 3.493 3.493 0 0 0-1.292-.071 2.843 2.843 0 0 0-1.118.365v8.767h-2.367V28.637a3.95 3.95 0 0 0 .616-.133c.251-.076.634-.204 1.15-.379a6.928 6.928 0 0 1 1.894-.288c.05-.01.101-.01.151 0h.592a6.15 6.15 0 0 1 2.116.506l.033.01Zm-6.921.326L99.73 39.227h-2.5l-3.697-10.548c.8.006 1.586-.223 2.258-.658l2.235 6.524.369 2.225h.17l.365-2.225 2.239-6.524a4.109 4.109 0 0 0 2.258.658ZM65.02 33.05c.53.207.997.55 1.354.994.39.553.585 1.218.558 1.894a3.427 3.427 0 0 1-.686 2.144 3.613 3.613 0 0 1-1.723 1.155 5.084 5.084 0 0 1-2.216.185 5.146 5.146 0 0 1-2.154-.8 4.356 4.356 0 0 1-1.534-1.813l1.761-1.15c.268.473.655.87 1.122 1.15.412.268.883.43 1.373.473.416.047.837-.042 1.198-.256a1.184 1.184 0 0 0 .525-.998.738.738 0 0 0-.07-.35.831.831 0 0 0-.209-.29 1.922 1.922 0 0 0-.668-.383c-.274-.08-.54-.152-.804-.208-.434-.08-.862-.186-1.283-.318a5.28 5.28 0 0 1-1.278-.582 2.964 2.964 0 0 1-1.004-.994 2.789 2.789 0 0 1-.374-1.345v-.037a1.186 1.186 0 0 1 0-.185 3.048 3.048 0 0 1 .653-1.988c.408-.52.952-.915 1.572-1.141a5.443 5.443 0 0 1 1.927-.327 4.804 4.804 0 0 1 1.85.388 5.87 5.87 0 0 1 1.785 1.212l-1.42 1.558a3.055 3.055 0 0 0-1.131-.7 3.73 3.73 0 0 0-1.302-.261 2.277 2.277 0 0 0-1.084.246.914.914 0 0 0-.341.303.948.948 0 0 0-.17.421 1.005 1.005 0 0 0 .274.848c.225.216.498.378.795.473.307.108.625.185.947.227.6.065 1.19.205 1.757.417v.038Zm5.004-8.73a1.51 1.51 0 0 1 .416 1.094 1.458 1.458 0 0 1-.913 1.42 1.633 1.633 0 0 1-1.16 0 1.368 1.368 0 0 1-.474-.327 1.532 1.532 0 0 1-.322-.473 1.513 1.513 0 0 1-.109-.578 1.578 1.578 0 0 1 .105-.591 1.483 1.483 0 0 1 .8-.824c.18-.072.373-.109.568-.11.2-.003.397.034.582.11.184.051.356.138.507.256v.023Zm6.035 12.782V23.888h2.368v8.63l1.107-1.235 2.883-3.257h2.96l-4.65 5.16 4.626 6.036h-2.775l-3.508-4.583-.639.668v3.915l-2.272.085h-.398c-1.515-.109-2.58-.473-3.205-1.018a3.67 3.67 0 0 1-1.122-2.812V23.888h2.367V35.44c-.009.213.029.426.11.624.076.202.197.383.354.53.541.326 1.164.49 1.794.474v.033Zm-5.898 2.102h-2.367v-11.23h2.367v11.23ZM54.59 27.302h-2.325l1.524-2.528h2.917l-2.117 2.528Zm66.75 2.163a3.925 3.925 0 0 0-1.648-1.23 5.563 5.563 0 0 0-2.097-.389 5.384 5.384 0 0 0-2.097.379 5.206 5.206 0 0 0-1.931 1.42l1.372 1.264a3.22 3.22 0 0 1 1.25-.81 3.61 3.61 0 0 1 1.473-.16c.461.031.903.195 1.273.473.373.299.625.723.71 1.193v.677a6.198 6.198 0 0 0-2.045-.474 5.21 5.21 0 0 0-2.069.322 3.355 3.355 0 0 0-2.291 3.314 4.174 4.174 0 0 0 .606 2.287 3.312 3.312 0 0 0 1.515 1.273c.666.289 1.381.45 2.106.474a10.7 10.7 0 0 0 2.334-.152 12.66 12.66 0 0 0 2.197-.596v-7.182a3.423 3.423 0 0 0-.644-2.083h-.014Zm-1.7 7.735a6.875 6.875 0 0 1-1.354.251 4.368 4.368 0 0 1-1.358-.099 1.66 1.66 0 0 1-1.364-1.894c.005-.2.053-.397.142-.577.09-.183.217-.344.374-.474a2.122 2.122 0 0 1 1.118-.426 4.508 4.508 0 0 1 1.311.033 3.78 3.78 0 0 1 1.131.322V37.2Zm-26.236-6.693a3.066 3.066 0 0 0-.473-.947 3.968 3.968 0 0 0-1.624-1.302 5.478 5.478 0 0 0-2.074-.436c-.169.003-.338.016-.506.038a5.334 5.334 0 0 0-1.624.398c-.387.17-.743.402-1.056.686a3.394 3.394 0 0 0-1.212 2.756v3.915a3.64 3.64 0 0 0 .654 2.163c.211.283.458.538.734.758.278.213.582.391.904.53a5.649 5.649 0 0 0 1.624.412h.506a5.381 5.381 0 0 0 2.074-.431 3.867 3.867 0 0 0 1.623-1.288c.444-.633.674-1.39.659-2.163v-3.91a4.537 4.537 0 0 0-.209-1.18ZM91.21 35.6a1.42 1.42 0 0 1-.313.91 2.14 2.14 0 0 1-.753.577c-.3.12-.622.182-.946.18a2.76 2.76 0 0 1-.976-.18 2.224 2.224 0 0 1-.776-.578 1.5 1.5 0 0 1-.303-.909v-3.915a1.368 1.368 0 0 1 .303-.875c.212-.233.479-.407.776-.507.153-.06.312-.105.474-.133a2.84 2.84 0 0 1 1.42.133c.29.1.55.275.753.506.207.245.318.556.312.876l.029 3.915Zm-33.83-6.135a3.925 3.925 0 0 0-1.648-1.23 5.567 5.567 0 0 0-2.097-.389 5.317 5.317 0 0 0-1.96.327.688.688 0 0 0-.137.052 5.311 5.311 0 0 0-1.965 1.42l1.378 1.264a3.41 3.41 0 0 1 .71-.535c.172-.1.353-.184.54-.25.474-.156.975-.21 1.472-.162.461.032.904.196 1.274.474.374.297.625.721.705 1.192v.678a6.08 6.08 0 0 0-2.04-.474 5.24 5.24 0 0 0-1.95.275l-.12.047a3.357 3.357 0 0 0-2.29 3.314c.002.451.064.9.184 1.335h-8.048l8.479-11.272-.762-1.624h-10.61v2.457h7.996L38.045 37.56l.663 1.643h10.855v-2.045c.114.278.259.544.43.79.123.158.256.306.398.446.289.263.62.474.98.624.095.047.193.086.294.119a5.77 5.77 0 0 0 1.813.336 10.76 10.76 0 0 0 2.339-.152c.747-.131 1.48-.331 2.191-.596v-7.177a3.418 3.418 0 0 0-.643-2.083h.014ZM55.656 37.2a7.002 7.002 0 0 1-1.359.251 4.372 4.372 0 0 1-1.359-.099 1.893 1.893 0 0 1-1.022-.601 1.534 1.534 0 0 1-.256-.474 2.34 2.34 0 0 1-.085-.81c.01-.143.038-.284.085-.42.07-.252.222-.473.43-.63a2.122 2.122 0 0 1 1.118-.426 4.507 4.507 0 0 1 1.312.033c.391.048.773.156 1.13.322v2.84l.006.014Z" clip-rule="evenodd"/><path fill="#DEDEDE" fill-rule="evenodd" d="m17.769 30.573.445 11.362-8.11-7.315-1.14-9.468 8.805 5.42Z" clip-rule="evenodd"/><path fill="#B4B4B4" fill-rule="evenodd" d="m24.714 26.932 2.873-1.76-1.13 9.467-8.12 7.329.474-11.362 3.536-2.22-.232 5.581L24.33 32.4l.383-5.468Z" clip-rule="evenodd"/></svg>
